X: 13
T:Bourre - Chez Robert (F. Paris)
C:F. Paris
M:3/8
L:1/16
K:C
c3dBd|cBAGAB|c3dBd|c2GcEG|\
c3dBd|cBAGAB|c2BcdB|1 c2cdgcdg:|2 cBcdeg||
|:f2e2dc|d2cdef|f2fedc|BdGBdB|\
f2e2dc|d2cdef|fedcBA|1 G2BdBdB2d2:|2 G6g6||
